X: 19320
T: Jack Gilder's Beard
R: barndance
M: 4/4
K: Dmajor
|:de|(3fed AF DFBA|(3GAG FG E2cd|(3edc BA GECE|DEFG A2de|
(3fed AF DFBA|(3GAG FG E2cd|(3edc BA GECE|D2d2 D2:|
|:(3fed|(3ABA FA f2 (3gfe|BAGB g2ed|caBg AfGe|de (3dcB A2 (3fed|
(3ABA FA f2 (3gfe|BAGB g3^g|aA^GA B=geg|d2f2 d2:|

